X:1
T: Bargenny Bowling Green
C:Joseph Riddle
R:Jig
Q:180
K:Em
M:6/8
L:1/16
B,2|E2F2E2 E4d2|A2F2D2 D4F2|E2F2E2 E4f2|g4e2 f2d2B2|g2a2g2 f4e2|d2B2d2 D4F2|E2F2E2 E4g2|fga2f2 e4B2|
e2f2e2 e4b2|a2f2d2 d4f2|e2f2e2 e4b2|a4f2 g2e2B2|g2a2g2 f4e2|d2B2d2 D4F2|E2F2E2 E4g2|fga2f2 e4B2|
e2B2e2 d2B2d2|A2F2D2 D4d2|e2B2e2 d2B2d2|e2B2e2 d2B2d2|g2f2e2 d2B2G2|A2F2D2 D4F2|E2F2E2 E4g2|fga2f2 e4ga|
b2g2e2 b2g2e2|g2f2d2 f2g2a2|b2g2e2 b2g2e2|b2g2e2 e4f2|g2a2g2 f4e2|d2B2d2 B4F2|E2F2E2 E4g2|fga2f2 e4||
